img/scissors.svg

<svg xmlns="http://www.w3.org/2000/svg" viewBox="0 0 818.937 1279.828" xml:space="preserve" stroke="#000" fill="none" stroke-linecap="round" stroke-linejoin="round"><path d="M225.2 841.9c13.2.1 26.4.3 39.6.4-7 7.9-18.6 9.2-28.7 12.4-10.1 3.3-20.7 11.9-18.5 22.2 4.9 22.6 16.9 50.9 39.9 49-12.4 14.4-6.9 40.2 10.3 48.3 18.5-3.8 36.9-7.7 55.4-11.5-20.5 20.8-49.6 32.8-78.8 32.5 49 1.8 98.4-18.3 132.3-53.8 2.5 19.5-16.6 34.5-34.3 43.1-40.9 19.6-87 28.4-132.3 25.1 75.3 26.1 167.6-16.9 196-91.3 2.3 37.8-23.9 72.7-56.5 91.9-32.6 19.2-70.9 25.8-108.3 32 19.9 12.6 44.5 17.7 67.7 14-18.4 9.5-39.7 13.5-60.3 11.4 22 9.6 47.3 11.7 70.6 5.9.9 7.6 1.9 15.3 2.8 22.9-68.5-13.8-135.8-33.6-200.9-59-19.5-7.6-37.1 14-47 32.6-24.7 46.4-49.5 92.8-74.2 139.2 39.4-119.4 78.8-238.8 118.2-358.1 21-63.8 42.1-127.7 72.3-187.6 98.4-195.3 147.1-412.2 242.9-608.8 12.4-25.5 33.3-54.7 61.2-50 19.1 3.2 32.1 22.4 34.5 41.5 2.5 19.1-3.3 38.3-8.9 56.7-34.6 112.5-69.2 224.9-103.8 337.4 9.1 10.9 26.7 10.8 39 3.8 12.3-7.1 20.6-19.3 28.6-31 66.9-97.9 140.6-191.2 220.5-278.8 13.3-14.5 27.3-29.4 45.4-37.3 18.2-7.9 41.5-7.1 55.3 7.1 12 12.5 13.7 32.3 8.7 48.9-4.9 16.6-15.6 30.8-26 44.7C693 323.8 598 449.9 503.1 575.9c23 15.6 48.4 27.8 74.9 36 6.6 2 13.5 3.8 20.3 3 8-.9 15.2-5.5 21-11.1 18.9-18.3 23.4-49.7 10.3-72.5-13.1-22.9-42.5-34.9-67.9-27.8 22.6-23.8 67.4-8.3 80.4 21.8 13.1 30.2 2.3 65.7-15.2 93.5 22.9 4 38.5 27.3 41.3 50.5 2.8 23.1-4.3 46.2-11.4 68.4-25.3 80-51 160.6-93.1 233.1-59.6 102.6-152.9 191.7-170.7 309-4.2-28.5 1.7-58.4 16.5-83.2 11.3-18.9-9.5-40.8-28.7-51.6-19.2-10.8-42.7-26.4-38.5-48 20.6 15.2 41.2 30.3 61.8 45.5 3.9 2.9 8.4 5.9 13.2 5.1 4.3-.7 7.5-4.3 10.2-7.7 94.3-116.6 178.4-246.6 209.3-393.3-43.5 34.9-86.9 69.7-130.4 104.5-16.9 13.6-36.8 27.9-58.1 24.3-31.1-5.3-43.3-47.5-29.9-76 13.3-28.6 42.2-46 69.6-61.7-38-19.8-84.6-.9-120.1 23.3-35.4 24.1-69.9 54.5-112.5 59.2-14.4 1.6-35.4 8.2-30.2 21.7m247-67.2c14.9-1.3 28.5 12.1 30.6 26.9 2.2 14.9-5 29.8-15.5 40.5-4.6 4.7-10.1 9.5-10.3 16 46.9-42 94.1-84.2 147.4-117.7 11.1-6.9 23.2-14.4 28.1-26.5 2.3-5.8 2.6-12.2 3-18.4.8-14.5 1.4-29.6-4.3-42.9-5.7-13.4-19.6-24.3-33.9-21.7 15.9 17 20.8 44.2 9.7 64.7-11.8 21.9-37.6 32.2-62 37.1-24.4 5-50.1 6.4-72.2 17.9-11.5 6-21.4 14.4-31.3 22.7-13 11-26.1 22.1-35.8 36.1 5.9-5.8 11.9-11.6 17.8-17.4 8.2-7.9 17.3-16.4 28.7-17.3m-43.3-99.9c-4.6-.5-7.9-4.4-10.6-8.1-20.8-29.5-24.5-70.3-9.4-103-44.4 12.3-87.3 30.4-127.1 53.8-1.8-8.6 4.7-16.8 12.2-21.4 7.5-4.6 16.2-7.1 23.2-12.5 2.5-2 5-4.9 4.3-8.1-.4-2.1-2.1-3.6-3.7-5.1-13.9-12.4-27.9-24.8-41.8-37.2 24.2 2.4 46.3 20 54 43.1 24.3-7.8 48.5-15.7 72.8-23.5 12.6-4.1 25.5-8.3 38.8-8.4 13.3-.1 27.3 4.5 35.4 14.9 4.1 5.3 12.4.4 16.9-4.6 81.9-89.9 155.9-187 220.7-290 1.3-2.1 2.7-4.5 2.3-6.9-.3-2.4-2.2-4.2-4-5.8-17.3-15.3-34.9-30.3-52.7-44.9-29.4 35.1-58.7 70.3-88 105.4-6.2 7.4-12.7 16.9-9 25.7-11.9 3-19.8 13.9-26.8 24-21.6 31.5-43.3 63-64.9 94.5 21.8 12.4 39.8 31.6 50.8 54.1-8.5 2.8-17.7-2.2-23.7-8.8-6.1-6.5-10.3-14.6-16.6-20.9-9.3-9.2-22.3-13.7-35-17.2-41.1-11.7-84.1-17.1-126.8-16.1-11.4.3-25.3 2.9-28.7 13.7-20.4 65-47.6 127.8-81 187.2-18.5 32.8-8.2 73.6 2.4 109.7 3.9 13.2 12.5 29.5 26.1 26.9 13.3-2.6 26.6 3.1 39.9 5.9 13.3 2.9 29.8 1.4 36.6-10.3-22.3-.4-44.5-.7-66.7-1.1-4.4 0-9.1-.2-12.8-2.7-3.7-2.4-5.5-8.2-2.4-11.4 25.2.9 50.3 1.7 75.5 2.6 15 .5 33.9-1.6 38.5-15.8-11.7 2.8-24.7-.7-33.5-9 13.5 2.6 28.4-4.3 35-16.4 13.3-24.3 42.3-35.4 69.8-39.4 40.6-6.1 82.9-.6 120.7 15.6 9.4 4 18.8 8.7 28.9 10.2 10.2 1.6 21.7-.8 28.1-8.9-35.5.5-67.3-34.4-63.5-69.7 2.8-25.1-21.8-43.6-43.4-56.6l-38.4-23.1c-5.7 23.8-4.7 49.1 2.9 72.4-5.7 2-12.2-2-15-7.4-2.8-5.3-2.9-11.7-2.9-17.8 0-15.3 0-30.6-.1-45.9-18 11.3-28.4 33.6-25.5 54.6 3 22 19 41.5 18.2 63.7m-72.1-375.2c-4.1-3.3-9.1 2.7-10.8 7.7-14.8 43.7-29.7 87.4-44.6 131.2 29.4 3.2 58.9 4.8 88.4 4.7 3.8 0 7.9-.2 10.5-2.9 2.7-2.6 1.6-8.5-2.2-8.5-18.3 0-36.5.1-54.8.1-3.4 0-7.2-.2-9.6-2.6-2.4-2.4-1.3-7.8 2.1-7.6 19.7.9 39.4.1 58.9-2.6 5.2-.7 10.5-1.6 14.7-4.7 4.5-3.5 6.9-9 8.9-14.3 10.3-26.5 17.9-54 22.8-82-28.9 7.5-61.2.4-84.3-18.5m450.8-167c-.5-3.2-2.6-5.9-4.7-8.4-10.5-12.9-25.6-25.2-41.9-22.1-11.9 2.2-20.7 11.8-28.6 20.9-20.5 23.5-41.1 47-61.6 70.5-.8.9-1.7 2-1.7 3.3 0 1.3.9 2.4 1.8 3.4 13.2 14.5 27.3 28.2 42.3 40.9 3.9 3.3 8.6 6.7 13.6 5.4 3.1-.8 5.5-3.5 7.6-6 25.2-30.1 48.3-61.9 69-95.2 2.4-3.9 4.8-8.2 4.2-12.7M472.4 21.2c-6.2 4.2-10.2 10.7-14 17.2-21.1 36-38.5 74.2-52 113.7 24.3 5.4 48.7 10.9 73 16.3 1 .2 2.1.4 3-.2.6-.4.9-1.1 1.2-1.7 13.3-31.2 24.6-63.3 33.7-96 2.1-7.5 4.1-15.2 3.5-23-1.1-12.2-9.3-23.4-20.5-28.2-8.9-3.9-19.8-3.5-27.9 1.9m-112.5 248c30.6-3 62 2.8 89.5 16.6 8.9-30.9 17.8-61.7 26.7-92.6.7-2.7 1.5-5.7.3-8.2-1-2.3-3.4-3.7-5.7-4.8-18.8-9.3-40.2-11-61.1-12.6-2.6-.2-5.4-.3-7.5 1.2-1.4 1.1-2.3 2.7-3.1 4.4-14.8 31.2-27.9 63.3-39.1 96m87.6 590.4c2 1.2 4 2.5 6.4 2.6 4.9.3 8.5-4.4 11.2-8.6 7.7-12.4 15.5-24.8 23.3-37.2 1.4-2.3 2.9-4.6 3.5-7.2 1.3-5.6-1.5-11.3-5.1-15.8-3.9-4.7-9.6-8.7-15.6-7.7-4.7.8-8.3 4.3-11.6 7.7-9.6 10-19.2 20-28.8 30.1-5.3 5.5-4.7 14.8-.6 21.2 4.2 6.5 10.8 10.8 17.3 14.9M574.4 622c3.6 9.9 6.3 20.4 5.3 30.9s-6.1 21-15.2 26.4c7.3 3.8 14.8 7.4 22.4 10.6 8.5 3.6 18.4 6.7 26.4 2.3 7.3-4 10.5-12.9 10.7-21.2.4-17.1-10-33.8-25.4-41.1-7.7-3.6-16.2-4.9-24.2-7.9M364.1 290.1c7.1 5.3 14.3 10.6 22.5 13.8 8.5 3.3 17.7 4.1 26.8 4.9 4 .3 7.9.7 11.9 1 3.9.3 7.9.7 11.7-.2 3.9-.9 7.5-3.3 9-7 1.4-3.6-.1-8.5-3.8-9.8-27.6-9.9-57-14.8-86.3-14.4-.1 4.9 4.2 8.7 8.2 11.7M546 615.3c.8 15.7 2.8 31.4 5.8 46.8.8 4.2 2.1 8.8 5.8 10.8 9.3-7.6 14-20.5 11.6-32.3-2.4-11.8-11.7-21.9-23.2-25.3M234.5 810.2c11.2-1.6 22.5-3.2 33.7-4.8-9.8-2.3-19.7-3.8-29.7-5.4-3.1-.5-6.5-1-9.5.3-2.9 1.3-4.9 5.2-3.1 7.9 1.7 2.6 5.5 2.4 8.6 2m-50.8 209c6.8 4.4 15 6.7 23.2 6.5 1.1 0 2.2-.1 3.3-.2-8.8-2.1-17.7-4.2-26.5-6.3" fill="#000" stroke="none"/><path d="M474.3 627c-2.8-2.4-2.6-6.8-2.2-10.5l1.8-14.7c.4-3.5 2.2-8 5.6-7.2 2.4.6 3.2 3.6 3.4 6.1.3 5.1 0 10.3-1 15.4-.9 4.6-3 9.8-7.6 10.9M294.8 940.4c4.4-2.1 10.1-4.1 13.6-.7-4.8 11.2-17.9 18.2-29.9 15.8-1.8-.9-2-3.6-1-5.3 1.1-1.7 3-2.7 4.8-3.6 4.2-2.1 8.4-4.1 12.5-6.2M464.3 607.7c5.6 5.5 4.9 14.6 3.8 22.4-1 7.1-2.1 14.2-3.1 21.3-.4 3-1.8 6.8-4.8 6.5-3-.3-3.7-4.4-3.5-7.4.5-8.2 1.1-16.5 1.6-24.7.4-6.5 1.1-13.7 6-18.1M266.7 748.5c1.7-3 5.9-3.3 9.4-2.9 11.4 1.1 22.6 4.3 33 9.3 2.4 1.2 5.1 3.8 3.7 6-3.5.2-7 .3-10.5.5-6.7.2-13.6.5-20.1-1.2-6.5-1.7-12.7-5.6-15.5-11.7M637.7 337c-5.7.3-11-2.6-16-5.4-5.7-3.1-11.5-6.3-17.2-9.5-2.6-1.5-5.6-3.5-5.5-6.5 7.7-3.3 16.9-6.6 24.3-2.4 2.3 1.3 4.1 3.3 5.9 5.3 4.7 5.2 9.3 11.6 8.5 18.5M314.2 907.6c2.2 3.7.7 8.7-2.4 11.7-3 3.1-7.2 4.6-11.2 6.1-8.8 3.1-17.7 6.4-27 7.6-3.2-1.5-3.4-6.3-1.2-9.1 2.1-2.8 5.6-4.1 9-5.2 10.9-3.7 21.8-7.4 32.8-11.1M617.5 376.1c2.1 1.4 1.4 4.9-.8 6.2-2.1 1.3-4.8 1-7.2.4-17.3-3.8-32.5-16-40-32.1 16.6 7.4 32.6 16 48 25.5M574.7 333.5c1.4-2.2 4.7-2 7.2-1.4 16.8 3.7 34.4 11.8 41.4 27.5 1.3 2.9-2.2 6-5.4 5.7-3.1-.3-5.6-2.7-7.9-4.8-7.2-6.6-15.1-12.4-23.6-17.2-4.6-2.5-9.6-5.1-11.7-9.8M494.4 457.1c-2.9-2.7-6.1-5.8-6.4-9.8-.4-4 4-8.3 7.5-6.2 9.7 5.8 19 12.4 27.7 19.7 7.1 5.9 14.4 13.3 15.1 22.5.3 2.9-.8 6.5-3.6 6.8-1.1.1-2.2-.3-3.1-.8-4.7-2.2-8.6-5.8-12.4-9.3-8.3-7.7-16.5-15.3-24.8-22.9M346.9 820.8c1 6.6-4.5 12.2-9.7 16.5-25 20.4-53.9 36-84.7 45.7-.5.2-1.1.4-1.7.4-3.4.2-5-4.8-3.2-7.7 1.8-2.9 5.3-4.1 8.5-5.3 24.7-8.7 46.9-23.4 67.8-39.2 6.9-5.2 14.4-10.7 23-10.4" fill="#000" stroke="none"/></svg>

<?xml version="1.0" encoding="utf-8"?>
<!DOCTYPE svg PUBLIC "-//W3C//DTD SVG 1.1//EN" "http://www.w3.org/Graphics/SVG/1.1/DTD/svg11.dtd">

<svg version="1.1" id="Contours" xmlns="http://www.w3.org/2000/svg" xmlns:xlink="http://www.w3.org/1999/xlink" x="0px" y="0px" viewBox="0.000000 0.000000 818.936707 1279.828003" xml:space="preserve" stroke="black" fill="none" stroke-linecap='round' stroke-linejoin='round'>
<desc xmlns:shape="http://adobe.com/products/shape">
</desc>
<path d='M225.2 841.9 C238.4 842.0 251.6 842.2 264.8 842.3 C257.8 850.2 246.2 851.5 236.1 854.7 C226.0 858.0 215.4 866.6 217.6 876.9 C222.5 899.5 234.5 927.8 257.5 925.9 C245.1 940.3 250.6 966.1 267.8 974.2 C286.3 970.4 304.7 966.5 323.2 962.7 C302.7 983.5 273.6 995.5 244.4 995.2 C293.4 997.0 342.8 976.9 376.7 941.4 C379.2 960.9 360.1 975.9 342.4 984.5 C301.5 1004.1 255.4 1012.9 210.1 1009.6 C285.4 1035.7 377.7 992.7 406.1 918.3 C408.4 956.1 382.2 991.0 349.6 1010.2 C317.0 1029.4 278.7 1036.0 241.3 1042.2 C261.2 1054.8 285.8 1059.9 309.0 1056.2 C290.6 1065.7 269.3 1069.7 248.7 1067.6 C270.7 1077.2 296.0 1079.3 319.3 1073.5 C320.2 1081.1 321.2 1088.8 322.1 1096.4 C253.6 1082.6 186.3 1062.8 121.2 1037.4 C101.7 1029.8 84.1 1051.4 74.2 1070.0 C49.5 1116.4 24.7 1162.8 0.0 1209.2 C39.4 1089.8 78.8 970.4 118.2 851.1 C139.2 787.3 160.3 723.4 190.5 663.5 C288.9 468.2 337.6 251.3 433.4 54.7 C445.8 29.2 466.7 0.0 494.6 4.7 C513.7 7.9 526.7 27.1 529.1 46.2 C531.6 65.3 525.8 84.5 520.2 102.9 C485.6 215.4 451.0 327.8 416.4 440.3 C425.5 451.2 443.1 451.1 455.4 444.1 C467.7 437.0 476.0 424.8 484.0 413.1 C550.9 315.2 624.6 221.9 704.5 134.3 C717.8 119.8 731.8 104.9 749.9 97.0 C768.1 89.1 791.4 89.9 805.2 104.1 C817.2 116.6 818.9 136.4 813.9 153.0 C809.0 169.6 798.3 183.8 787.9 197.7 C693.0 323.8 598.0 449.9 503.1 575.9 C526.1 591.5 551.5 603.7 578.0 611.9 C584.6 613.9 591.5 615.7 598.3 614.9 C606.3 614.0 613.5 609.4 619.3 603.8 C638.2 585.5 642.7 554.1 629.6 531.3 C616.5 508.4 587.1 496.4 561.7 503.5 C584.3 479.7 629.1 495.2 642.1 525.3 C655.2 555.5 644.4 591.0 626.9 618.8 C649.8 622.8 665.4 646.1 668.2 669.3 C671.0 692.4 663.9 715.5 656.8 737.7 C631.5 817.7 605.8 898.3 563.7 970.8 C504.1 1073.4 410.8 1162.5 393.0 1279.8 C388.8 1251.3 394.7 1221.4 409.5 1196.6 C420.8 1177.7 400.0 1155.8 380.8 1145.0 C361.6 1134.2 338.1 1118.6 342.3 1097.0 C362.9 1112.2 383.5 1127.3 404.1 1142.5 C408.0 1145.4 412.5 1148.4 417.3 1147.6 C421.6 1146.9 424.8 1143.3 427.5 1139.9 C521.8 1023.3 605.9 893.3 636.8 746.6 C593.3 781.5 549.9 816.3 506.4 851.1 C489.5 864.7 469.6 879.0 448.3 875.4 C417.2 870.1 405.0 827.9 418.4 799.4 C431.7 770.8 460.6 753.4 488.0 737.7 C450.0 717.9 403.4 736.8 367.9 761.0 C332.5 785.1 298.0 815.5 255.4 820.2 C241.0 821.8 220.0 828.4 225.2 841.9 M472.2 774.7 C487.1 773.4 500.7 786.8 502.8 801.6 C505.0 816.5 497.8 831.4 487.3 842.1 C482.7 846.8 477.2 851.6 477.0 858.1 C523.9 816.1 571.1 773.9 624.4 740.4 C635.5 733.5 647.6 726.0 652.5 713.9 C654.8 708.1 655.1 701.7 655.5 695.5 C656.3 681.0 656.9 665.9 651.2 652.6 C645.5 639.2 631.6 628.3 617.3 630.9 C633.2 647.9 638.1 675.1 627.0 695.6 C615.2 717.5 589.4 727.8 565.0 732.7 C540.6 737.7 514.9 739.1 492.8 750.6 C481.3 756.6 471.4 765.0 461.5 773.3 C448.5 784.3 435.4 795.4 425.7 809.4 C431.6 803.6 437.6 797.8 443.5 792.0 C451.7 784.1 460.8 775.6 472.2 774.7 M428.9 674.8 C424.3 674.3 421.0 670.4 418.3 666.7 C397.5 637.2 393.8 596.4 408.9 563.7 C364.5 576.0 321.6 594.1 281.8 617.5 C280.0 608.9 286.5 600.7 294.0 596.1 C301.5 591.5 310.2 589.0 317.2 583.6 C319.7 581.6 322.2 578.7 321.5 575.5 C321.1 573.4 319.4 571.9 317.8 570.4 C303.9 558.0 289.9 545.6 276.0 533.2 C300.2 535.6 322.3 553.2 330.0 576.3 C354.3 568.5 378.5 560.6 402.8 552.8 C415.4 548.7 428.3 544.5 441.6 544.4 C454.9 544.3 468.9 548.9 477.0 559.3 C481.1 564.6 489.4 559.7 493.9 554.7 C575.8 464.8 649.8 367.7 714.6 264.7 C715.9 262.6 717.3 260.2 716.9 257.8 C716.6 255.4 714.7 253.6 712.9 252.0 C695.6 236.7 678.0 221.7 660.2 207.1 C630.8 242.2 601.5 277.4 572.2 312.5 C566.0 319.9 559.5 329.4 563.2 338.2 C551.3 341.2 543.4 352.1 536.4 362.2 C514.8 393.7 493.1 425.2 471.5 456.7 C493.3 469.1 511.3 488.3 522.3 510.8 C513.8 513.6 504.6 508.6 498.6 502.0 C492.5 495.5 488.3 487.4 482.0 481.1 C472.7 471.9 459.7 467.4 447.0 463.9 C405.9 452.2 362.9 446.8 320.2 447.8 C308.8 448.1 294.9 450.7 291.5 461.5 C271.1 526.5 243.9 589.3 210.5 648.7 C192.0 681.5 202.3 722.3 212.9 758.4 C216.8 771.6 225.4 787.9 239.0 785.3 C252.3 782.7 265.6 788.4 278.9 791.2 C292.2 794.1 308.7 792.6 315.5 780.9 C293.2 780.5 271.0 780.2 248.8 779.8 C244.4 779.8 239.7 779.6 236.0 777.1 C232.3 774.7 230.5 768.9 233.6 765.7 C258.8 766.6 283.9 767.4 309.1 768.3 C324.1 768.8 343.0 766.7 347.6 752.5 C335.9 755.3 322.9 751.8 314.1 743.5 C327.6 746.1 342.5 739.2 349.1 727.1 C362.4 702.8 391.4 691.7 418.9 687.7 C459.5 681.6 501.8 687.1 539.6 703.3 C549.0 707.3 558.4 712.0 568.5 713.5 C578.7 715.1 590.2 712.7 596.6 704.6 C561.1 705.1 529.3 670.2 533.1 634.9 C535.9 609.8 511.3 591.3 489.7 578.3 C476.9 570.6 464.1 562.9 451.3 555.2 C445.6 579.0 446.6 604.3 454.2 627.6 C448.5 629.6 442.0 625.6 439.2 620.2 C436.4 614.9 436.3 608.5 436.3 602.4 C436.3 587.1 436.3 571.8 436.2 556.5 C418.2 567.8 407.8 590.1 410.7 611.1 C413.7 633.1 429.7 652.6 428.9 674.8 M356.8 299.6 C352.7 296.3 347.7 302.3 346.0 307.3 C331.2 351.0 316.3 394.7 301.4 438.5 C330.8 441.7 360.3 443.3 389.8 443.2 C393.6 443.2 397.7 443.0 400.3 440.3 C403.0 437.7 401.9 431.8 398.1 431.8 C379.8 431.8 361.6 431.9 343.3 431.9 C339.9 431.9 336.1 431.7 333.7 429.3 C331.3 426.9 332.4 421.5 335.8 421.7 C355.5 422.6 375.2 421.8 394.7 419.1 C399.9 418.4 405.2 417.5 409.4 414.4 C413.9 410.9 416.3 405.4 418.3 400.1 C428.6 373.6 436.2 346.1 441.1 318.1 C412.2 325.6 379.9 318.5 356.8 299.6 M807.6 132.6 C807.1 129.4 805.0 126.7 802.9 124.2 C792.4 111.3 777.3 99.0 761.0 102.1 C749.1 104.3 740.3 113.9 732.4 123.0 C711.9 146.5 691.3 170.0 670.8 193.5 C670.0 194.4 669.1 195.5 669.1 196.8 C669.1 198.1 670.0 199.2 670.9 200.2 C684.1 214.7 698.2 228.4 713.2 241.1 C717.1 244.4 721.8 247.8 726.8 246.5 C729.9 245.7 732.3 243.0 734.4 240.5 C759.6 210.4 782.7 178.6 803.4 145.3 C805.8 141.4 808.2 137.1 807.6 132.6 M472.4 21.2 C466.2 25.4 462.2 31.9 458.4 38.4 C437.3 74.4 419.9 112.6 406.4 152.1 C430.7 157.5 455.1 163.0 479.4 168.4 C480.4 168.6 481.5 168.8 482.4 168.2 C483.0 167.8 483.3 167.1 483.6 166.5 C496.9 135.3 508.2 103.2 517.3 70.5 C519.4 63.0 521.4 55.3 520.8 47.5 C519.7 35.3 511.5 24.1 500.3 19.3 C491.4 15.4 480.5 15.8 472.4 21.2 M359.9 269.2 C390.5 266.2 421.9 272.0 449.4 285.8 C458.3 254.9 467.2 224.1 476.1 193.2 C476.8 190.5 477.6 187.5 476.4 185.0 C475.4 182.7 473.0 181.3 470.7 180.2 C451.9 170.9 430.5 169.2 409.6 167.6 C407.0 167.4 404.2 167.3 402.1 168.8 C400.7 169.9 399.8 171.5 399.0 173.2 C384.2 204.4 371.1 236.5 359.9 269.2 M447.5 859.6 C449.5 860.8 451.5 862.1 453.9 862.2 C458.8 862.5 462.4 857.8 465.1 853.6 C472.8 841.2 480.6 828.8 488.4 816.4 C489.8 814.1 491.3 811.8 491.9 809.2 C493.2 803.6 490.4 797.9 486.8 793.4 C482.9 788.7 477.2 784.7 471.2 785.7 C466.5 786.5 462.9 790.0 459.6 793.4 C450.0 803.4 440.4 813.4 430.8 823.5 C425.5 829.0 426.1 838.3 430.2 844.7 C434.4 851.2 441.0 855.5 447.5 859.6 M574.4 622.0 C578.0 631.9 580.7 642.4 579.7 652.9 C578.7 663.4 573.6 673.9 564.5 679.3 C571.8 683.1 579.3 686.7 586.9 689.9 C595.4 693.5 605.3 696.6 613.3 692.2 C620.6 688.2 623.8 679.3 624.0 671.0 C624.4 653.9 614.0 637.2 598.6 629.9 C590.9 626.3 582.4 625.0 574.4 622.0 M364.1 290.1 C371.2 295.4 378.4 300.7 386.6 303.9 C395.1 307.2 404.3 308.0 413.4 308.8 C417.4 309.1 421.3 309.5 425.3 309.8 C429.2 310.1 433.2 310.5 437.0 309.6 C440.9 308.7 444.5 306.3 446.0 302.6 C447.4 299.0 445.9 294.1 442.2 292.8 C414.6 282.9 385.2 278.0 355.9 278.4 C355.8 283.3 360.1 287.1 364.1 290.1 M546.0 615.3 C546.8 631.0 548.8 646.7 551.8 662.1 C552.6 666.3 553.9 670.9 557.6 672.9 C566.9 665.3 571.6 652.4 569.2 640.6 C566.8 628.8 557.5 618.7 546.0 615.3 M234.5 810.2 C245.7 808.6 257.0 807.0 268.2 805.4 C258.4 803.1 248.5 801.6 238.5 800.0 C235.4 799.5 232.0 799.0 229.0 800.3 C226.1 801.6 224.1 805.5 225.9 808.2 C227.6 810.8 231.4 810.6 234.5 810.2 M183.7 1019.2 C190.5 1023.6 198.7 1025.9 206.9 1025.7 C208.0 1025.7 209.1 1025.6 210.2 1025.5 C201.4 1023.4 192.5 1021.3 183.7 1019.2 ' fill ="#000000" stroke="none"/>
<path d='M474.3 627.0 C471.5 624.6 471.7 620.2 472.1 616.5 C472.7 611.6 473.3 606.7 473.9 601.8 C474.3 598.3 476.1 593.8 479.5 594.6 C481.9 595.2 482.7 598.2 482.9 600.7 C483.2 605.8 482.9 611.0 481.9 616.1 C481.0 620.7 478.9 625.9 474.3 627.0 ' fill ="#000000" stroke="none"/>
<path d='M294.8 940.4 C299.2 938.3 304.9 936.3 308.4 939.7 C303.6 950.9 290.5 957.9 278.5 955.5 C276.7 954.6 276.5 951.9 277.5 950.2 C278.6 948.5 280.5 947.5 282.3 946.6 C286.5 944.5 290.7 942.5 294.8 940.4 ' fill ="#000000" stroke="none"/>
<path d='M464.3 607.7 C469.9 613.2 469.2 622.3 468.1 630.1 C467.1 637.2 466.0 644.3 465.0 651.4 C464.6 654.4 463.2 658.2 460.2 657.9 C457.2 657.6 456.5 653.5 456.7 650.5 C457.2 642.3 457.8 634.0 458.3 625.8 C458.7 619.3 459.4 612.1 464.3 607.7 ' fill ="#000000" stroke="none"/>
<path d='M266.7 748.5 C268.4 745.5 272.6 745.2 276.1 745.6 C287.5 746.7 298.7 749.9 309.1 754.9 C311.5 756.1 314.2 758.7 312.8 760.9 C309.3 761.1 305.8 761.2 302.3 761.4 C295.6 761.6 288.7 761.9 282.2 760.2 C275.7 758.5 269.5 754.6 266.7 748.5 ' fill ="#000000" stroke="none"/>
<path d='M637.7 337.0 C632.0 337.3 626.7 334.4 621.7 331.6 C616.0 328.5 610.2 325.3 604.5 322.1 C601.9 320.6 598.9 318.6 599.0 315.6 C606.7 312.3 615.9 309.0 623.3 313.2 C625.6 314.5 627.4 316.5 629.2 318.5 C633.9 323.7 638.5 330.1 637.7 337.0 ' fill ="#000000" stroke="none"/>
<path d='M314.2 907.6 C316.4 911.3 314.9 916.3 311.8 919.3 C308.8 922.4 304.6 923.9 300.6 925.4 C291.8 928.5 282.9 931.8 273.6 933.0 C270.4 931.5 270.2 926.7 272.4 923.9 C274.5 921.1 278.0 919.8 281.4 918.7 C292.3 915.0 303.2 911.3 314.2 907.6 ' fill ="#000000" stroke="none"/>
<path d='M617.5 376.1 C619.6 377.5 618.9 381.0 616.7 382.3 C614.6 383.6 611.9 383.3 609.5 382.7 C592.2 378.9 577.0 366.7 569.5 350.6 C586.1 358.0 602.1 366.6 617.5 376.1 ' fill ="#000000" stroke="none"/>
<path d='M574.7 333.5 C576.1 331.3 579.4 331.5 581.9 332.1 C598.7 335.8 616.3 343.9 623.3 359.6 C624.6 362.5 621.1 365.6 617.9 365.3 C614.8 365.0 612.3 362.6 610.0 360.5 C602.8 353.9 594.9 348.1 586.4 343.3 C581.8 340.8 576.8 338.2 574.7 333.5 ' fill ="#000000" stroke="none"/>
<path d='M494.4 457.1 C491.5 454.4 488.3 451.3 488.0 447.3 C487.6 443.3 492.0 439.0 495.5 441.1 C505.2 446.9 514.5 453.5 523.2 460.8 C530.3 466.7 537.6 474.1 538.3 483.3 C538.6 486.2 537.5 489.8 534.7 490.1 C533.6 490.2 532.5 489.8 531.6 489.3 C526.9 487.1 523.0 483.5 519.2 480.0 C510.9 472.3 502.7 464.7 494.4 457.1 ' fill ="#000000" stroke="none"/>
<path d='M346.9 820.8 C347.9 827.4 342.4 833.0 337.2 837.3 C312.2 857.7 283.3 873.3 252.5 883.0 C252.0 883.2 251.4 883.4 250.8 883.4 C247.4 883.6 245.8 878.6 247.6 875.7 C249.4 872.8 252.9 871.6 256.1 870.4 C280.8 861.7 303.0 847.0 323.9 831.2 C330.8 826.0 338.3 820.5 346.9 820.8 ' fill ="#000000" stroke="none"/>

</svg>
